X:112
T:Stratford Jubilee THO3.112
O:England;London
M:6/8
L:1/8
Z:vmp. Peter Dunk 2011.from a transcription by Fynn Titford-Mock 2006-9
B:Thompson's Compleat Collection of 200 Favourite Country Dances Vol. III.1765-72
Q:3/8=100
K:A
Ace dBG|AEE EGB|Ace dBG| A[cE][eC] a3 &x3 A,3::fDD Dfa|geB GEb|
abg fe^d|e3 efg|afd Bcd|ecA GAB|FAd EAc|[cC][dD][BB,][A3A,3]:|

